X:1
T:Lille, 87.87
T:Lille, 87.87
T:Old French Melody
T:Public Domain Courtesy of the Cyber Hymnal™
C:Old French Melody
Z:Public Domain
Z:Courtesy of the Cyber Hymnal™
%%score ( 1 2 ) ( 3 4 )
L:1/8
Q:1/4=110
M:4/4
K:G
V:1 treble 
V:2 treble 
V:3 bass 
V:4 bass 
V:1
 [GB]2 [FA]2 [DG]3 [FA] x | (Bc) (de) (dc) [GB]2 | [GB]2 [DA]2 c3 z B | BA (GB) A4 | %4
 [GB]2 [FA]2 [EG]3 [FA] | (Bc) (de) (dc) [GB]2 | [Gd]2 (cB) [GA]2 (Bc) | [GB]2 (cA) [DG]4 |] %8
V:2
 x9 | G2 G2 F2 x2 | x4 C2 D2 x | E2 G2 (G2 F2) | x8 | G2 G2 F2 x2 | x2 G2 x G2 x | x2 F2 x4 |] %8
V:3
 [G,D]2 [D,C]2 B,3 z D | D2 D2 (A,D) [G,D]2 | [G,D]2 [F,A,]2 [E,G,]2 G,2 x | %3
 [C,E,]2 [^C,A,]2 (A,2 D2) | [G,D]2 [^D,C]2 [E,B,]3 [=D,^D] | D2 D2 (A,D) [G,D]2 | %6
 [G,B,]2 ([A,C][B,D]) [CE]2 [C,E]2 | [D,D]2 (A,C) [G,,B,]4 |] %8
V:4
 x4 G,,2 G,,2 x | (G,,A,,) (B,,C,) D,2 x2 | x6 G,2 x | x4 B,,4 | x8 | (G,,A,,) (B,,C,) D,2 x2 | %6
 x8 | x2 D,2 x4 |] %8

